icons/fingerprint_fill.svg

<svg width="48" height="48" viewBox="0 0 48 48" fill="none" xmlns="http://www.w3.org/2000/svg">
<path fill-rule="evenodd" clip-rule="evenodd" d="M10 18C10 10.268 16.268 4 24 4C31.732 4 38 10.268 38 18V30C38 37.732 31.732 44 24 44C16.268 44 10 37.732 10 30V18ZM24 18C24.5523 18 25 18.4477 25 19V28.7871C25 31.0447 25.548 32.5528 26.4676 33.5003C27.3818 34.4424 28.8285 35 31 35C31.5523 35 32 35.4477 32 36C32 36.5523 31.5523 37 31 37C28.5048 37 26.4515 36.3555 25.0324 34.8932C23.6187 33.4365 23 31.3382 23 28.7871V19C23 18.4477 23.4477 18 24 18ZM24 9C19.0142 9 13.9998 12.7647 14 18.2349V30.7835C14 32.0291 14.1835 33.3149 14.575 34.4478C14.962 35.5675 15.5853 36.63 16.5311 37.3004C16.9817 37.6198 17.6058 37.5134 17.9252 37.0628C18.2446 36.6122 18.1382 35.9881 17.6876 35.6687C17.2081 35.3288 16.7767 34.6954 16.4653 33.7945C16.1585 32.9068 16 31.8471 16 30.7835V18.2349C15.9999 14.1227 19.847 11 24 11C28.153 11 32.0001 14.1227 32 18.2349V28.5435C32 29.2052 31.8656 29.7152 31.6663 30.0261C31.501 30.2838 31.2832 30.433 30.8906 30.433C30.4738 30.433 30.1593 30.2587 29.9234 29.9538C29.6715 29.6284 29.5 29.1322 29.5 28.5435V19.2371C29.5 17.7552 28.9267 16.329 27.8982 15.2734C26.8689 14.217 25.4672 13.6186 24 13.6186C22.5328 13.6186 21.1311 14.217 20.1018 15.2734C19.0733 16.329 18.5 17.7552 18.5 19.2371V30.8528C18.5 34.2461 20.2578 37.5537 24.1567 38.9421C24.677 39.1273 25.249 38.8557 25.4342 38.3354C25.6195 37.8152 25.3479 37.2432 24.8276 37.0579C21.8359 35.9927 20.5 33.5236 20.5 30.8528V19.2371C20.5 18.2691 20.8749 17.3459 21.5343 16.6692C22.1928 15.9933 23.0803 15.6186 24 15.6186C24.9197 15.6186 25.8072 15.9933 26.4657 16.6692C27.1251 17.3459 27.5 18.2691 27.5 19.2371V28.5435C27.5 29.4951 27.7734 30.4436 28.3417 31.1779C28.9259 31.9327 29.8066 32.433 30.8906 32.433C31.9988 32.433 32.8357 31.9076 33.3499 31.1056C33.8301 30.3568 34 29.4221 34 28.5435V18.2349C34.0002 12.7647 28.9858 9 24 9Z" fill="black"/>
</svg>

<svg
  xmlns="http://www.w3.org/2000/svg"
  width="24"
  height="24"
  viewBox="0 0 24 24"
  fill="none"
  stroke="currentColor"
  stroke-width="2"
  stroke-linecap="round"
  stroke-linejoin="round"
>
  <path
    fill-rule="evenodd"
    d="M10 18c0-7.732 6.268-14 14-14s14 6.268 14 14v12c0 7.732-6.268 14-14 14s-14-6.268-14-14zm14 0a1 1 0 0 1 1 1v9.787c0 2.258.548 3.766 1.468 4.713.914.942 2.36 1.5 4.532 1.5a1 1 0 1 1 0 2c-2.495 0-4.549-.645-5.968-2.107C23.62 33.437 23 31.338 23 28.787V19a1 1 0 0 1 1-1m0-9c-4.986 0-10 3.765-10 9.235v12.549c0 1.245.184 2.53.575 3.664.387 1.12 1.01 2.182 1.956 2.852a1 1 0 1 0 1.157-1.631c-.48-.34-.911-.974-1.223-1.874-.306-.888-.465-1.948-.465-3.012V18.236C16 14.123 19.847 11 24 11s8 3.123 8 7.235v10.309c0 .661-.134 1.171-.334 1.482-.165.258-.383.407-.775.407-.417 0-.732-.174-.968-.48-.251-.325-.423-.82-.423-1.41v-9.306a5.68 5.68 0 0 0-1.602-3.964A5.44 5.44 0 0 0 24 13.62a5.44 5.44 0 0 0-3.898 1.654 5.68 5.68 0 0 0-1.602 3.964v11.616c0 3.393 1.758 6.7 5.657 8.09a1 1 0 0 0 .67-1.885c-2.991-1.065-4.327-3.534-4.327-6.205V19.237a3.68 3.68 0 0 1 1.034-2.568A3.44 3.44 0 0 1 24 15.62c.92 0 1.807.374 2.466 1.05a3.68 3.68 0 0 1 1.034 2.568v9.307c0 .951.273 1.9.842 2.634a3.16 3.16 0 0 0 2.549 1.255c1.108 0 1.945-.525 2.459-1.327.48-.75.65-1.684.65-2.562v-10.31C34 12.765 28.986 9 24 9"
    clip-rule="evenodd"
  />
</svg>
